X:1
T:Bas-Quercy, LM
T:Bas-Quercy, LM
T:French carol from Bas-Quercy
T:Public Domain Courtesy of the Cyber Hymnal™
C:French carol from Bas-Quercy
Z:Public Domain
Z:Courtesy of the Cyber Hymnal™
%%score ( 1 2 ) ( 3 4 )
L:1/8
Q:1/4=105
M:4/4
K:Bb
V:1 treble 
V:2 treble 
V:3 bass 
V:4 bass 
V:1
 [DG]2 [DF][DG] [FA]2 [FA]2 | [FB]2 [FB]2 [FA]4 | [DG]2 [DF][DG] [FA]2 [DG]2 | [DF]2 [^C=E]2 D4 | %4
 [DG]2 [DF][DG] [FA]2 [FA]2 | [FB]2 [FB]2 [FA]4 | [Fd]2 [Fd][Fc] [Fd]2 c2 | [GB]2 [^FA]2 G4 |] %8
V:2
 x8 | x8 | x8 | x4 D4 | x8 | x8 | x6 (EG) | x4 G4 |] %8
V:3
 [G,B,]2 [D,A,][G,B,] [F,C]2 [F,C]2 | [B,D]2 [B,D]2 [F,C]4 | [G,B,]2 B,[G,B,] [F,C]2 [G,B,]2 | %3
 A,2 (A,G,) [D,F,]4 | [G,B,]2 [D,A,][G,B,] [F,C]2 [F,C]2 | [B,D]2 [B,D]2 [F,C]4 | %6
 B,2 B,[F,A,] B,2 [CE]2 | D2 (DC) [G,B,]4 |] %8
V:4
 x8 | x8 | x2 B, x5 | A,2 A,,2 x4 | x8 | x8 | B,2 B, B,2 x3 | D2 D,2 x4 |] %8

